app/images/icons/return.svg

<svg width="20" height="20" viewBox="0 0 20 20" fill="none" xmlns="http://www.w3.org/2000/svg">
<path d="M9.98165 1.62584e-05C7.30952 0.00481465 4.88335 1.0578 3.09214 2.76957L1.65206 1.32949C1.04238 0.719815 0 1.15159 0 2.01377V7.41937C0 7.95385 0.433266 8.38711 0.967742 8.38711H6.37335C7.23552 8.38711 7.6673 7.34473 7.05766 6.73506L5.37419 5.05159C6.61871 3.88631 8.22907 3.24082 9.93992 3.22606C13.6656 3.19389 16.8062 6.20901 16.774 10.0584C16.7434 13.7101 13.7829 16.7742 10 16.7742C8.34165 16.7742 6.77431 16.1824 5.53911 15.0986C5.34786 14.9308 5.05903 14.941 4.87911 15.1209L3.27984 16.7201C3.08339 16.9166 3.0931 17.2369 3.29927 17.4231C5.0725 19.0247 7.42234 20 10 20C15.5228 20 20 15.5229 20 10.0001C20 4.48361 15.4981 -0.00986277 9.98165 1.62584e-05Z" fill="#262626"/>
</svg>

<svg width="20" height="20" fill="none" xmlns="http://www.w3.org/2000/svg"><path d="M9.982 0a9.966 9.966 0 00-6.89 2.77l-1.44-1.44C1.042.72 0 1.151 0 2.013v5.405c0 .535.433.968.968.968h5.405c.863 0 1.294-1.042.685-1.652L5.374 5.052A6.725 6.725 0 019.94 3.226c3.726-.032 6.866 2.983 6.834 6.832-.03 3.652-2.991 6.716-6.774 6.716A6.724 6.724 0 015.54 15.1a.483.483 0 00-.66.022l-1.6 1.6a.485.485 0 00.02.702A9.964 9.964 0 0010 20c5.523 0 10-4.477 10-10C20 4.484 15.498-.01 9.982 0z" fill="#262626"/></svg>
